X:29
T:Low Highland, The
R:highland
H:Donegal version of Scottish strathspey "Miss Stewart of Grantully"
Z:id:hn-hf-29
M:C|
L:1/8
K:Ador
A,2~A,2 EDB,A, | G,B,DE D<G,B,G, | A,2~A,2 EDB,A, | G,A, (3B,A,G, A,2G,B, :|
A,bag e<def | g2~g2 d<gBG | Abag e<def | (3gfe (3dcB A2 (3GAB |
Abag e<def | g2~g2 defg | (3agf (3gfe fdAF | (3GFE DB, A,2G,B, ||
P:Variations
|: A,2~A,2 EA,B,A, | G,B,DG D<G,B,G, | A,2~A,2 EDB,A, | G,A,B,G, A,2G,B, :|
A,agf edef | g2~g2 dgBG | Aagf edef | gdBG A2GB |
Aagf edef | g2~g2 dgfg | (3agf ge dBAF | GEDB, A,2G,B, ||

